X: 42189
T: Watkin's Ale
R: three-two
M: 3/2
K: Fmajor
f4 e2 f4c2|d4c2 d4A2|B4A2 B4F2|A4G2 F6:|
|:F2A2F2A3Bc2|G2B2G2B3cd2|B2d2B2d3ef2|g4 f2e2c4:|
|:c2f4 e6|A2d4 c6|F2B4 A3G F2|F2 E4 F6:|

